!!!!SEGMENT: pl-cz--iii-50--011_brykner-jerzy--vesperae-in-convertendo.krn
!!!cenid: 17xx:853
!!!COM: Brykner, Jerzy
!!!COM-rismID: pe30025739
!!!CDT: 1705-1760
!!!CNT: Polish
!!!OPR: Vesperae
!!!OTL: In convertendo
!!!OMV: 011
!!!PDT:
!!!AGN: Sacred; Vespers
!!!SMS-siglum: PL-CZ
!!!SMS-shelfmark: III-50
!!!SMS-shelfwork: 001-011 M
!!!SMS-variant:
!!!SMS-altvar:
!!!NIFC-rismSourceID: 300033583
!!!NIFC-rismChildID: 300033583
!!!NIFC-islandoraID: pl-cz:38729
!!!URL-pdf-islandora: https://repozytorium.nifc.pl/islandora/object/pl-cz%3A38729/datastream/PDF/view
!!!URL-scan:
!!!ONB-nifc: UWAGA: części Vesperae: Dixit Dominus, Confitebor, Beatus vir, Laudate pueri, Laudate Dominum, In exitu, Laetatus sum, Nisi Dominus, Lauda Jerusalem, Credidi, In convertendo, Domine probasti me, Memento Domine David, Confitebor, De profundis, Beati omnes, Magnificat
!!!AIN: 1 empty 1 organ 2 violn 1 vox
!!!key:
**kern	**fba	**kern	**kern	**kern	**text	**kern	**text
*part5	*part5	*part4	*part3	*part2	*part2	*part1	*part1
*staff5	*	*staff4	*staff3	*staff2	*staff2	*staff1	*staff1
*Iorgan	*	*Ivioln	*Ivioln	*Iempty	*	*Ivox	*
*I"Organo.	*	*I"Violini Secundo.	*I"Violini Primo.	*I"Baſso.	*	*I"Canto.	*
*I'org	*	*I'vl 2	*I'vl 1	*I'B	*	*I'S	*
*clefF4	*	*clefG2	*clefG2	*clefF4	*	*clefC1	*
*k[f#c#]	*	*k[f#c#]	*k[f#c#]	*k[f#c#]	*	*k[c#f#]	*
*b:	*	*b:	*b:	*b:	*	*b:	*
*M4/4	*	*M4/4	*M4/4	*M4/4	*	*M4/4	*
*met(c)	*	*met(c)	*met(c)	*met(c)	*	*met(c)	*
=1	=1	=1	=1	=1	=1	=1	=1
!	!	!	!	!LO:SIC:t:=:v:TX:a:t=problem&colon;tytuł podwójnie podkreślony	!	!	!
!LO:TX:b:t=In convertendo.	!	!LO:TX:b:t=In convertendo.	!LO:TX:b:t=In convertendo.	!LO:TX:rj:b:t=In convertendo.	!	!	!
4BB/	.	0r	0r	2r	.	8r	.
.	.	.	.	.	.	8ff#\	IN
!LO:TX:a:t=P:problem=mixed beam	!	!	!	!	!	!	!
.	.	.	.	.	.	8qqee/	.
8B\L	.	.	.	.	.	8dd\	con-
8BB/J	.	.	.	.	.	16cc#\LL	-ver-
.	.	.	.	.	.	16b\JJ	.
8C#/L	6\	.	.	4r	.	8a#X\	-ten-
8D/	.	.	.	.	.	8b\	-do
8AA#X/	6	.	.	8r	.	16cc#\	Do-
.	.	.	.	.	.	16f#/	-mi-
8FF#/J	#	.	.	16F#\	Fa-	16f#/	-n(us)
.	.	.	.	16F#\	-cti	16cc#\	cap-
=2	=2	=2	=2	=2	=2	=2	=2
!LO:TX:a:t=P:problem=mixed beam	!	!	!	!	!	!	!
8BB/L	.	.	.	8.B\	ſu-	8dd\	-ti-
8F#\	#	.	.	.	.	8cc#\	-vi-
.	.	.	.	16A\	-mus	.	.
8G\	.	.	.	8G\	si-	4.b\	-ta-
8F#\J	.	.	.	8F#\	-cut	.	.
!LO:TX:a:t=P:problem=mixed beam	!	!	!	!	!	!	!
8E\L	.	.	.	16G\LL	con-	.	.
.	.	.	.	16E\JJ	.	.	.
8C#\	.	.	.	16F#\LL	-so-	8cc#\	-tem
.	.	.	.	16G\JJ	.	.	.
8F#\	#	.	.	4C#/	-la-	4a#X\	Ja-
8FF#/J	.	.	.	.	.	.	.
=3	=3	=3-	=3	=3	=3	=3	=3
!LO:TX:a:t=P:problem=mixed beam	!	!	!	!	!	!LO:SIC:o:s:=:v:oddechy jako rozdzielacza słów&colon;global	!
8BB/L	.	8r	8r	8BB/	-ti,	8b,\	-cob,
!LO:TX:a:t=T.	!	!	!	!	!	!	!
8F#\J	#	16a#X/LL	16ff#\LL	16F#\	tu(n)c	16cc#\	tu(n)c
.	.	16a#/JJ	16ff#\JJ	16F#\	re-	16cc#\	re-
8B\L	.	16b/LL	16ff#\LL	8B\	-ple-	8dd\	-ple-
.	.	16b/	16ff#\	.	.	.	.
8F#\J	.	16b/	16ff#\	16F#\	-tu(m)	16dd\	-tu(m)
.	.	16b/JJ	16ff#\JJ	16F#\	e(st)	16dd\	eſt
!	!	!LO:SIC:o:s:=:v:16\right&colon;global	!	!	!	!	!
8c#\L	6\	16cc#\LL	16aa#X\LL	16c#\	gau-	16ee\	gau-
.	.	16cc#\	16aa#\	16c#\	-di-	16ee\	-di-
8F#\	.	16ff#\	16aa#\	16F#\	-o	16ee\	-o
.	.	16ff#\JJ	16aa#\JJ	16F#\	os	16ee\	os
!	!	!	!	!	!	!LO:LB:g=original	!
8d\	6	16dd/LL	16bb\LL	8d\	noſ-	8ff#\	noſ-
.	.	16f#/	16ff#\	.	.	.	.
8c#\J	6\	16cc#/	16aa#X\	16c#\	-tru(m),	16ee\	-tru(m),
.	.	16f#/JJ	16ff#\JJ	16c#\	et	16ee\	et
!	!	!	!	!LO:LB:g=original	!	!	!
=4	=4	=4	=4	=4	=4	=4	=4
8B\L	.	8b/L	16bb\LL	8B\	lin-	8dd\	lin-
.	.	.	16aa\	.	.	.	.
8E#X\J	7 #	8dd/	16gg#X\	8E#X\	-gua	8dd\	-gua
.	x x3	.	16bb\JJ	.	.	.	.
16F#\LL	x n	8cc#/	16aa\LL	16F#\LL	nos-	8cc#\	noſ-
!	!	!	!	!LO:SIC:o:s:=:v:s=16En	!	!	!
16En\	.	.	16gg#X\	16E#\JJ	.	.	.
16D\	.	8b/J	16ff#\	16D/LL	-tra	8b\	-tra
16C#\JJ	.	.	16ee\JJ	16C#/JJ	.	.	.
4BB#X/	7	8a/L	8dd#X\L	8BB#X/	ex-	8a\	ex-
.	6 #	8g#X/J	16gg#X\L	8BB#/	-ul-	16g#X/LL	-ul-
.	5	.	16ff#\JJ	.	.	16f#/JJ	.
!LO:TX:a:t=P:problem=mixed beam	!	!	!	!	!	!	!
8C#/L	#	8g#/L	8ee#X\L	8C#/	-ta-	8e#X/	-ta-
8F#\J	.	16a/L	8ff#\J	8F#\	-ti-	16f#/LL	-ti-
.	.	16b/JJ	.	.	.	16g#/JJ	.
=5	=5	=5	=5	=5	=5	=5	=5
2C#/	4	4a/	4ff#\	2C#/	-o-	(4a\	-o-
.	#	4g#X/	4ee#X\	.	.	4g#X\)	.
!LO:LB:g=original	!	!	!LO:LB:g=original	!	!	!	!
4F#\	.	4f#/	4ff#\	8F#\	-ne,	4f#\	-ne.
.	.	.	.	8c#\	tu(n)c	.	.
4E#X\	6	4r	4r	16G#X\	di-	4r	.
.	.	.	.	16A\	-ce(n)t	.	.
.	.	.	.	16B\	in-	.	.
.	.	.	.	16c#\	-ter	.	.
=6	=6	=6	=6	=6	=6	=6	=6
4F#\	.	00r	00r	8A\	gen-	8r	.
.	.	.	.	8F#\	-tes	8ff#\	Ma-
4A#X\	6	.	.	8r	.	16cc#\	-gni-
.	.	.	.	.	.	16dd\	-fi-
.	.	.	.	8F#\	ma-	16ee\	-ca-
.	.	.	.	.	.	16ff#\	-vit
4.B\	.	.	.	8B\	-gni-	8.dd\	Do-
.	.	.	.	8B\	-fi-	.	.
.	.	.	.	.	.	16cc#\	-mi-
.	.	.	.	8B\	-ca-	8b\	-n(us)
8E\	6	.	.	8B\	-vit	[8gg\	fa-
=7	=7	=7	=7	=7	=7	=7	=7
8C#/L	6 5	.	.	8A\	Do-	8gg\]	.
*	*	*	*	*	*	*custos:ee	*
!	!	!	!	!	!	!LO:LB:g=original	!
8D/J	.	.	.	16A\	-mi-	4ff#\	.
.	.	.	.	16A\	-n(us)	.	.
!	!	!	!	!LO:LB:g=original	!	!	!
4GG/	7	.	.	16B\	fa-	.	.
.	3	.	.	16A\	-ce-	.	.
.	4	.	.	16G\	-re	16ee\LL	-ce-
.	3	.	.	16F#\	no-	16dd\JJ	.
2AA/	.	.	.	(8E\L	.	8cc#\	-re
.	.	.	.	8F#\J)	.	8dd\	cum
.	.	.	.	4E\	-bis	(8dd\L	e-
.	.	.	.	.	.	8cc#\J)	.
=8	=8	=8	=8	=8	=8	=8	=8
4.D\	.	.	.	8D\	cum	8dd,\	-is,
.	.	.	.	16F#\	fac-	16dd\	fac-
.	.	.	.	16F#\	-ti	16dd\	-ti
.	.	.	.	4G#X\	su-	8dd\L	su-
8E\	7 #	.	.	.	.	16ee\L	.
.	.	.	.	.	.	16dd\JJ	.
8F#\L	x 5	.	.	8A\	-m(us)	8cc#\	-mus
8D\	x 6	.	.	8B\	lae-	16ff#\LL	lae-
.	.	.	.	.	.	16dd\JJ	.
8E\	x #	.	.	4G#X\	-tan-	4b\	-tan-
8D\J	.	.	.	.	.	.	.
=9	=9	=9	=9	=9	=9	=9	=9
8C#/L	6	.	.	4A\	-tes,	8a,\	-tes.
8AA/	.	.	.	.	.	8ee\	Con-
8BB/	n6	.	.	4r	.	16g/LL	-ver-
.	.	.	.	.	.	16f#/JJ	.
8C#/J	.	.	.	.	.	16g/LL	-te
.	.	.	.	.	.	16a/JJ	.
8D\L	.	.	.	2r	.	16f#/	D(o-
.	.	.	.	.	.	16g/	-mi)-
8D\	.	.	.	.	.	16a,\	-ne
.	.	.	.	.	.	16b\	cap-
8E\	n6	.	.	.	.	16ccn\LL	-ti-
.	.	.	.	.	.	16ee\JJ	.
8F#\J	.	.	.	.	.	16dd\LL	-vi-
.	.	.	.	.	.	16cc\JJ	.
=10	=10	=10	=10	=10	=10	=10	=10
!	!	!LO:N:vis=00	!	!	!	!	!
4G\	.	0r	0r	8r	.	8b\	-ta-
.	.	.	.	16G\	Si-	(16a\LL	-tem
.	.	.	.	16G\	-cut	16g\JJ)	.
!	!	!	!	!	!	!LO:LB:g=original	!
4A\	7	.	.	8G\	tor-	4ccn\	noſ-
.	6	.	.	16F#\	-rens	.	.
.	.	.	.	16F#\	in	.	.
4G\	.	.	.	16G\LL	au-	4b\	-tra(m)
.	.	.	.	16A\	.	.	.
.	.	.	.	16B\	.	.	.
.	.	.	.	16c#\JJ	.	.	.
4F#\	6	.	.	8d\	.	8r	.
!	!	!	!	!LO:SIC:o:s:=:v:oddechy jako rozdzielacza słów&colon;global	!	!	!
.	.	.	.	16D,\	-stro,	8dd\	qui
.	.	.	.	16D\	qui	.	.
!	!	!	!	!LO:LB:g=original	!	!	!
=11	=11	=11	=11	=11	=11	=11	=11
8G\L	6 5	.	.	8E\	se-	8dd\	ſe-
8E\	.	.	.	8E\	-mi-	16ccn\LL	-mi-
.	.	.	.	.	.	16b\JJ	.
8A\	n	.	.	8A\	-nant	8cc\	-na(n)t
*custos:G	*	*	*	*	*	*	*
!	!	!	!	!	!	!LO:SIC:o:s:=:v:8aa	!
8D\J	.	.	.	8G\	in	8ff#\	in
!LO:LB:g=original	!	!	!	!	!	!	!
8G\L	4	.	.	8.G\	la-	16cc\	la-
.	.	.	.	.	.	16b\	-cry-
8F#\	.	.	.	.	.	8b\	-mis
.	.	.	.	16G\	-cry-	.	.
8G\	3	.	.	8G\	-mis	8r	.
8E\J	.	.	.	8G\	in	8b\	in
=12	=12	=12	=12	=12	=12	=12	=12
4C#X/	6	1r	1r	8A\	e-	8ee\	e-
.	.	.	.	8E\	-xul-	8a\	-xul-
4D#X/	6 5	.	.	8F#\	-ta-	16a\LL	-ta-
.	.	.	.	.	.	16ccn\JJ	.
.	.	.	.	8BB/	-ti-	16b\LL	-ti-
.	.	.	.	.	.	16f#\JJ	.
8E\L	.	.	.	8E\	-o-	8g/	-o-
8Cn\J	.	.	.	8E\	-ne	16f#/LL	-ne
.	.	.	.	.	.	16e/JJ	.
8AA/L	6 5	.	.	8E\L	me-	4f#/	me-
8BB/J	x #	.	.	8D#X\J	.	.	.
!	!	!LO:PB:g=original	!	!	!	!	!
=13	=13	=13	=13	=13	=13	=13	=13
4E\	.	4r	4r	4E\	-tent.	4e/	-tent,
8r	.	8r	8r	8r	.	8r	.
!LO:TX:a:t=T.	!	!LO:SIC:o:s:=:v:8\right&colon;global	!	!	!	!	!
8G\	.	8dd\L	8bb\	8G\	E-	8dd\	E-
8F#\L	6	8dd\	8aa\L	8F#\	-un-	16dd\LL	-un-
.	.	.	.	.	.	16ee\JJ	.
8D\	.	8dd\J	16gg\L	8D\	-tes	16dd\LL	-tes
.	.	.	16ff#\JJ	.	.	16ccn\JJ	.
!	!	!	!	!	!	!LO:LB:g=original	!
8G\	.	8dd\L	8bb\L	8G\	i-	8b\	i-
8A\J	n	8ccn\J	8aa\J	16A\	-ba(n)t,	16ccn,\	-bant,
.	.	.	.	16A\	et	16cc\	et
=14	=14	=14	=14	=14	=14	=14	=14
8B\L	6	8b\L	16gg\LL	8B\	fle-	8dd\	fle-
.	.	.	16gg\	.	.	.	.
8cn\J	.	8ee\J	16gg\	16cn\	-bant	16ee,\	-bant
.	.	.	16gg\JJ	16c\	mit-	16ee\	mit-
8B\L	6	16dd\LL	16dd\LL	16B\LL	-ten-	16dd\LL	-ten-
!	!	!LO:SIC:o:s:=:v:s-=16ccn	!	!	!	!	!
.	.	16cc#\	16dd\	16A\JJ	.	16ccn\JJ	.
!	!	!	!	!LO:LB:g=original	!	!	!
16A\L	.	16b\	16gg\	16G\LL	-tes	16b\LL	-tes
!	!	!LO:SIC:o:s:=:v:s-=16dd	!	!	!	!	!
16G\JJ	.	16cc#\JJ	16gg\JJ	16B\JJ	.	16dd\JJ	.
8A\L	n	16ccn\LL	16ff#\LL	16A\LL	se-	16cc\LL	se-
.	.	16b\	16gg\	16G\JJ	.	16b\JJ	.
8F#\	6	16a\	16aa\	16F#\	-mi-	16a\	-mi-
.	.	16cc\JJ	16ff#\JJ	16A\	-na	16cc\	-na
8G\	.	8b/L	8bb\L	8G\L	su-	(8b\L	su-
8E\J	6\	8cc#X/J	16aa\L	8E\J	.	8cc#X\J)	.
.	.	.	16gg\JJ	.	.	.	.
=15	=15	=15	=15	=15	=15	=15	=15
8D\L	.	8dd\L	8ff#\L	8D\	-a,	8dd,\	-a
8F#\	.	8dd\J	8aa\J	16F#\	ve-	16dd\	ve-
.	.	.	.	16F#\	-ni-	16dd\	-ni-
8B\	.	16dd\LL	16dd\LL	8B\	-en-	16dd\LL	-en-
.	.	16ff#\	16bb\	.	.	16ff#\JJ	.
8G\J	6	16ee\	16aa\	8G\	-tes	16ee\LL	-tes
.	.	16dd\JJ	16bb\JJ	.	.	16dd\JJ	.
8A\L	#	16cc#\LL	16cc#\LL	8A\	au-	8cc#\	au-
.	.	16ee\	16aa\	.	.	.	.
8F#\	6	16dd\	16gg\	8F#\	-te(m)	16dd\LL	-tem
.	.	16cc#\JJ	16aa\JJ	.	.	16cc#\JJ	.
8G\	.	16b\LL	16b\LL	16G\	ve-	16b\	ve-
.	.	16dd\	16gg\	16G\	-ni-	16b\	-ni-
8G\J	.	16dd\	16gg\	16G\	-ent	16b\	-ent
.	.	16dd\JJ	16ff#\JJ	16G\	cum	16b\	cum
!	!	!	!LO:LB:g=original	!	!	!LO:LB:g=original	!
=16	=16	=16	=16	=16	=16	=16	=16
8G\L	#4 2	8a\L	16ee\LL	8G\	e-	8cc#\	e-
.	.	.	16ff#\	.	.	.	.
8F#\	x 6	16dd\L	16gg\	8F#\	-xul-	8dd\	-xul-
.	.	16cc#\JJ	16aa\JJ	.	.	.	.
8G\	6 5	8b\L	8bb\L	8G\	-ta-	8b\	-ta-
8A\J	x #	8cc#\J	16aa\L	8A\	-ti-	8cc#\	-ti-
.	.	.	16gg\JJ	.	.	.	.
!LO:LB:g=original	!	!	!	!	!	!	!
8B\L	.	8dd\L	8ff#\L	8B\L	-o-	8dd\L	-o-
*	*	*custos:b	*	*	*	*	*
8A\J	6	8cc#\J	8ff#\	8A\J	.	8cc#\J	.
!	!	!LO:LB:g=original	!	!	!	!	!
4G\	7	4b/	8ff#\	4G\	.	4b\	.
.	6	.	8ee\J	.	.	.	.
=17	=17	=17	=17	=17	=17	=17	=17
!	!	!LO:TX:a:t=P:problem=mixed beam	!	!	!	!	!
4F#\	#	8a#X/L	8ff#\L	4F#\	-ne	8a#X,\	-ne
.	.	8ff#\J	8ff#\J	.	.	8ff#\	por-
4r	.	8cc#\L	8cc#\L	4r	.	8cc#\	-tan-
.	.	16dd\L	16dd\L	.	.	16dd\	-tes
.	.	16b\JJ	16b\JJ	.	.	16b\	ma-
!	!	!	!LO:N:vis=8.	!	!	!	!
8r	.	4.a#X/	4.a#X/L	8r	.	8.a#X\	-ni-
8F#\	#	.	.	8F#\	por-	.	.
.	.	.	.	.	.	16a#\	-pu-
!	!	!	!	!LO:LB:g=original	!	!	!
8C#/L	6\	.	.	8C#/	-tan-	8b\	-los
*	*	*	*	*	*	*	*ij
!	!	!	!LO:N:vis=16	!	!	!	!
16D/L	6	8b/	8b/J	16D/	-tes	8b\	ma-
16BB/JJ	.	.	.	16BB/	ma-	.	.
=18	=18	=18	=18	=18	=18	=18	=18
8AA#X/L	6	8f#/L	8cc#\L	8AA#X/	-ni-	8cc#\	-ni-
8BB/J	.	8b/	16dd\L	16BB/	-pu-	16dd\	-pu-
.	.	.	16b\JJ	16BB/	-los	16b,\	-los
*	*	*	*	*	*	*	*Xij
4F#\	4	8b/	4cc#\	4F#\	ſu-	4cc#\	su-
.	#	8a#X/J	.	.	.	.	.
8BB/	.	8b/L	8b\L	8BB/	-os.	4b\	-os.
!LO:TX:a:t=S.	!	!	!	!	!	!	!
4B\	.	8f#/	8dd\J	4B\	Glo-	.	.
.	.	8f#/	8dd\L	.	.	4r	.
8G#X\	6	8b/J	16ee\L	16G#X\	-ri-	.	.
.	.	.	16dd\JJ	16G#\	-a	.	.
=19	=19	=19	=19	=19	=19	=19	=19
!	!	!	!	!	!	!LO:TX:a:t=1.	!
8A\L	.	8a/L	8cc#\L	8A\	Pa-	1r	.
8D\J	.	8a/	16ff#\L	16D\	-tri,	.	.
.	.	.	16dd\JJ	16D\	et	.	.
4E\	4	8a/	4b\	8.E\	Fi-	.	.
.	#	8g#X/J	.	.	.	.	.
.	.	.	.	16E\	-li-	.	.
!LO:TX:a:t=P:problem=mixed beam	!	!	!	!	!	!	!
8AA/L	.	8a/L	8a\L	8AA/	-o,	.	.
8A\J	.	8cc#/J	8ee\	16A\	et	.	.
.	.	.	.	16A\	ſpi-	.	.
8F#\L	.	16dd\LL	8aa\	8F#\	-ri-	.	.
.	.	16a\	.	.	.	.	.
16G\L	.	16b\	8gg\J	16Gn\	-tu-	.	.
16A\JJ	.	16cc#\JJ	.	16A\	-i	.	.
=20	=20	=20	=20	=20	=20	=20	=20
8B\L	.	8dd\L	8ff#\L	8B\L	San-	2r	.
8G\J	.	16ee\L	16bb\L	8G\J	.	.	.
.	.	16b\JJ	16gg\JJ	.	.	.	.
!	!	!LO:SIC:o:s:=:v:4\right&colon;global	!	!	!	!	!
4A\	.	4cc#\	4ee\	4A\	.	.	.
!	!	!	!LO:LB:g=original	!	!	!	!
4D/	.	4dd\	4dd\	4D/	-cto,	4r	.
8r	.	8r	8r	8r	.	8r	.
!LO:TX:a:t=T.	!	!	!	!	!	!	!
8BB/	.	8dd\	8ff#\	16BB/	si-	16dd\	Si-
.	.	.	.	16BB/	-cut	16dd\	-cut
=21	=21	=21	=21	=21	=21	=21	=21
8E\L	7	8dd\L	8ff#\L	8E\	e-	8dd\	e-
8E\	.	16ee\L	16gg\L	8E\	-rat	8ee\	-rat
.	.	16dd\JJ	16ff#\JJ	.	.	.	.
!	!	!	!	!LO:LB:g=original	!	!LO:LB:g=original	!
8E\	6	8cc#/L	8ee\L	8E\	in	8cc#\	in
*	*	*custos:a	*	*	*	*	*
8E\J	5	8b/J	8dd\J	8E\	prin-	8b\	prin-
!	!	!LO:LB:g=original	!	!	!	!	!
8.F#\L	#	8.a#X/L	8cc#\L	8.F#\	-ci-	8.a#X\	-ci-
.	.	.	16dd\L	.	.	.	.
16E\Jk	.	16g/Jk	16ee\JJ	16E\	-pi-	16a#\	-pi-
8D/L	6	8f#/L	8ff#\L	8D\	-o,	8b\	-o,
8BB/J	.	16b/L	8bb\J	8B\	et	8dd\	et
.	.	16a#/JJ	.	.	.	.	.
!LO:PB:g=original	!	!	!	!	!	!	!
=22	=22	=22	=22	=22	=22	=22	=22
8E#X\L	6 5	8g#X/L	16bb\LL	8E#X\	nunc,	8cc#,\	nunc,
.	.	.	16gg#X\	.	.	.	.
8F#\J	x n.	8f#/J	16aa\	8F#\	et	8ff#\	et
.	.	.	16ff#\JJ	.	.	.	.
4C#/	x 4.	8f#/L	4gg#Xt\	4C#/	ſem-	4g#X/	ſem-
.	x #	8e#X/J	.	.	.	.	.
!	!	!LO:TX:a:t=P:problem=mixed beam	!	!	!	!	!
8F#\L	n	8f#/L	8ff#\L	8F#\	-per,	8f#/	-per,
8F#\	#	8ff#\	16ff#\L	16F#\	et	16ff#\	et
.	.	.	16ee\JJ	16F#\	in	16ff#\	in
8G\	7	8ff#\	8dd\L	8Gn\	ſae-	8ff#\	ſae-
8G\J	6	8ee\J	8bb\J	16G\	-cu-	16ee\	-cu-
.	.	.	.	16G\	-la	16ee\	-la
=23	=23	=23	=23	=23	=23	=23	=23
8F#\L	#	8ff#\L	8aa#X\L	8F#\	ſae-	8ff#\	ſae-
8A#X\	.	8cc#\	16ff#\L	8A#X\	-cu-	8cc#\	-cu-
.	.	.	16ee\JJ	.	.	.	.
8B\	.	8dd\	8dd\L	8B\	-lo-	8dd\	-lo-
8G\J	6	8ee\J	8bb\J	8G\	-ru(m)	8ee\	-ru(m)
8F#\L	#	16ff#\LL	8aa#X\L	8F#\	A-	16ff#\LL	A-
.	.	16ee\	.	.	.	16ee\JJ	.
8F#\J	.	16dd\	8aa#\J	8F#\	-me(n)	16dd\LL	.
.	.	16cc#\JJ	.	.	.	16cc#\JJ	.
16G\LL	.	8b\L	16bb\LL	16G\LL	A-	8b\L	.
16F#\	.	.	16aa#\	16F#\	.	.	.
16E\	.	16cc#\L	16gg\	16E\	.	16cc#\L	.
16D\JJ	.	16dd\JJ	16ff#\JJ	16D\JJ	.	16dd\JJ	.
!	!	!	!LO:LB:g=original	!	!	!	!
=24	=24	=24	=24	=24	=24	=24	=24
8C#/L	7	16ee\LL	8ee\L	8C#/L	.	16ee\LL	.
.	.	16dd\	.	.	.	16dd\JJ	.
16D/L	.	16cc#\	8bb\J	16D/L	.	16cc#\LL	.
*	*	*	*	*	*	*custos:a#	*
16E/JJ	.	16b\JJ	.	16E/JJ	.	16b\JJ	.
!	!	!	!	!	!	!LO:LB:g=original	!
16F#\LL	#	8a#X\L	16aa#X\LL	16F#\LL	.	8a#X\	.
16E\	.	.	16gg\	16E\	.	.	.
16D\	.	16b\L	16ff#\	16D\	.	16b\LL	.
16C#\JJ	.	16cc#\JJ	16ee\JJ	16C#\JJ	.	16cc#\JJ	.
8BB/L	.	[4dd\	8dd\L	8BB/L	.	[4dd\	.
16C#/L	.	.	16ee\L	16C#/L	.	.	.
16D/JJ	.	.	16ff#\JJ	16D/JJ	.	.	.
[4E\	7	8dd\L]	8gg\L	[4E\	.	8dd\L]	.
.	6	16cc#\L	8gg\J	.	.	16cc#\L	.
.	.	16b\JJ	.	.	.	16b\JJ	.
=25	=25	=25	=25	=25	=25	=25	=25
8E\L]	#4 2	8cc#\L	[4ff#\	8E\L]	.	8a#X\L	.
8D\J	x 6	8b\	.	8D\J	.	8f#\J	.
4G\	x 7	8b\	8ff#\]	4G\	.	4b\	.
.	x 6	8cc#\J	4ee\	.	.	.	.
*2\right	*	*	*	*2\right	*	*	*
*	*	*	*	*custos:F#	*	*	*
!&colon;global	!	!	!	!	!	!	!
[2F#\	x #4	4a#X/	.	[2F#\	.	4a#X\	.
.	.	.	16dd\LL	.	.	.	.
.	.	.	16cc#\JJ	.	.	.	.
.	.	[4b/	8dd\L	.	.	4b\	-men
.	.	.	8b\J	.	.	.	.
!	!	!	!	!LO:LB:g=original	!	!	!
=26	=26	=26	=26	=26	=26	=26	=26
2F#\]	x 4	4b/]	4dd\	2F#\]	.	(4b\	A-
.	x #	4a#X/	4cc#\	.	.	4a#X\)	.
*	*	*	*2\right	*	*	*2\right	*
2BB/	x #	2b/	2b\	2BB/	-men.	2b\	-men.
==	==	==	==	==	==	==	==
*-	*-	*-	*-	*-	*-	*-	*-
!!!system-decoration: [(s1,s2)][(s3,s4)]s5
!!!EED: Leszek Kubiak
!!!EEV: 2020-12-30
!!!ENC: Andrzej Borzym
!!!END: 2020-07-07
!!!YEC: Copyright 2022 Narodowy Instytut Fryderyka Chopina (https://polishscores.org)
!!!YEM: License CC-BY-4.0 (https://creativecommons.org/licenses/by/4.0)
